svg/fluentui-system-icons/ic_fluent_person_tag_48_regular.svg

<svg width="48" height="48" viewBox="0 0 48 48" fill="none" xmlns="http://www.w3.org/2000/svg">
<path d="M9 14C9 8.47715 13.4772 4 19 4C24.5228 4 29 8.47715 29 14C29 19.5228 24.5228 24 19 24C13.4772 24 9 19.5228 9 14ZM19 6.5C14.8579 6.5 11.5 9.85786 11.5 14C11.5 18.1421 14.8579 21.5 19 21.5C23.1421 21.5 26.5 18.1421 26.5 14C26.5 9.85786 23.1421 6.5 19 6.5ZM3 32.2489C3.00002 29.9013 4.90326 28 7.24988 28H22C22 28.0028 22 28.0055 22 28.0083V30.5H7.24988C6.28295 30.5 5.50001 31.283 5.5 32.2489L5.5 33C5.5 35.7444 6.86023 37.8081 9.22018 39.2448C11.6297 40.7117 15.0677 41.5 19 41.5C21.3854 41.5 23.5889 41.2099 25.4913 40.6542L27.4689 42.6318C24.9794 43.558 22.0628 44 19 44C14.7861 44 10.8491 43.1633 7.92017 41.3802C4.94167 39.5669 3 36.7555 3 33L3 32.2489ZM24 28.0066V34.6741C24 35.7367 24.4221 36.7558 25.1735 37.5072L32.4928 44.8265C34.0575 46.3912 36.5943 46.3912 38.1589 44.8265L44.8265 38.1589C46.3912 36.5943 46.3912 34.0575 44.8265 32.4928L37.5072 25.1735C36.7558 24.4221 35.7367 24 34.6741 24H28.0066C25.7938 24 24 25.7938 24 28.0066ZM29.5 31C28.6716 31 28 30.3284 28 29.5C28 28.6716 28.6716 28 29.5 28C30.3284 28 31 28.6716 31 29.5C31 30.3284 30.3284 31 29.5 31Z" fill="#212121"/>
</svg>

<svg xmlns="http://www.w3.org/2000/svg" width="48" height="48"><path d="M9 14C9 8.477 13.477 4 19 4s10 4.477 10 10-4.477 10-10 10S9 19.523 9 14Zm10-7.5a7.5 7.5 0 1 0 0 15 7.5 7.5 0 0 0 0-15ZM3 32.249A4.25 4.25 0 0 1 7.25 28H22v2.5H7.25a1.75 1.75 0 0 0-1.75 1.749V33c0 2.744 1.36 4.808 3.72 6.245C11.63 40.712 15.068 41.5 19 41.5c2.385 0 4.589-.29 6.491-.846l1.978 1.978C24.979 43.558 22.063 44 19 44c-4.214 0-8.15-.837-11.08-2.62C4.942 39.567 3 36.755 3 33v-.751Zm21-4.242v6.667c0 1.063.422 2.082 1.174 2.833l7.319 7.32a4.006 4.006 0 0 0 5.666 0l6.668-6.668a4.006 4.006 0 0 0 0-5.666l-7.32-7.32A4.007 4.007 0 0 0 34.674 24h-6.667A4.007 4.007 0 0 0 24 28.007ZM29.5 31a1.5 1.5 0 1 1 0-3 1.5 1.5 0 0 1 0 3Z"/></svg>
